packages/icons/src/SVG/Symphony.svg

<svg width="12" height="12" viewBox="0 0 12 12" fill="none" xmlns="http://www.w3.org/2000/svg">
<path d="M9.625 4.3825V2.62417C9.625 2.26417 9.42472 1.92542 9.10289 1.74083C8.62059 1.46375 7.57638 1 5.99979 1C4.4232 1 3.37898 1.46375 2.89711 1.74042C2.73897 1.83104 2.60772 1.96009 2.5162 2.11493C2.42468 2.26977 2.37602 2.4451 2.375 2.62375V5.26458L8.11474 6.88208V8.05875C8.11474 8.21792 8.01203 8.32958 7.83743 8.4125L5.99979 9.30875L4.15316 8.40792C3.98797 8.32958 3.88526 8.21792 3.88526 8.05875V7.17625L2.375 6.735V8.05875C2.375 8.78542 2.80296 9.40375 3.48255 9.72583L5.99979 11L8.50761 9.73042C9.19662 9.40375 9.62457 8.78542 9.62457 8.05917V5.85333L3.88526 4.23542V2.8925C4.29524 2.7 4.99452 2.47042 5.99979 2.47042C7.00505 2.47042 7.70433 2.69958 8.11432 2.8925V3.94125L9.625 4.3825Z" fill="#4C505B"/>
</svg>

<!-- Generated by IcoMoon.io -->
<svg version="1.1" xmlns="http://www.w3.org/2000/svg" width="12" height="12" viewBox="0 0 12 12">
<title>Symphony</title>
<path d="M9.625 4.382v-1.758c0-0.36-0.2-0.699-0.522-0.883-0.482-0.277-1.527-0.741-3.103-0.741s-2.621 0.464-3.103 0.74c-0.158 0.091-0.289 0.22-0.381 0.375s-0.14 0.33-0.141 0.509v2.641l5.74 1.618v1.177c0 0.159-0.103 0.271-0.277 0.354l-1.838 0.896-1.847-0.901c-0.165-0.078-0.268-0.19-0.268-0.349v-0.883l-1.51-0.441v1.324c0 0.727 0.428 1.345 1.108 1.667l2.517 1.274 2.508-1.27c0.689-0.327 1.117-0.945 1.117-1.671v-2.206l-5.739-1.618v-1.343c0.41-0.193 1.109-0.422 2.115-0.422s1.705 0.229 2.115 0.422v1.049l1.511 0.441z"></path>
</svg>
